X:543
T:The Kerry Dance
C:Traditional Irish
S:Colin Hume's website,  colinhume.com  - chords can also be printed below the stave.
Q:3/8=112
M:6/8
L:1/8
R:Jig
%%MIDI ratio 3 1
K:A
P:A
|: E | "A"A>BA ABc | "/"efe ecA | "Bm"BAB "A"cAE | "D"F>GF F2E |
"A"A>BA ABc | "/"efe ecA | "Bm"B>AB "A"cAE | "D"F2G "A"A2 :|
P:B
|: e | "A"efg "D"a2f | "E"g2e fec | "A"efg "D"a2f | "E"gfe "D"f2e |
"A"efg "D"a2f | "E"gfe "Bm"fga | "A"efe cAd | "E"cBc "A"A2 :|

